dist/img/catalog-brand/r_google.svg

<svg width="195" height="41" viewBox="0 0 195 41" fill="none" xmlns="http://www.w3.org/2000/svg">
<path d="M13.4287 29.0006C14.4305 30.2784 15.3423 31.6244 16.1575 33.0289C16.8535 34.3498 17.1436 35.2455 17.6523 36.837C17.9642 37.7163 18.2461 37.9787 18.8522 37.9787C19.5128 37.9787 19.8124 37.5323 20.044 36.8418C20.5248 35.3389 20.902 34.1917 21.4972 33.1079C22.6651 31.0154 24.1164 29.156 25.5424 27.3688C25.9285 26.863 28.4244 23.9164 29.548 21.5915C29.548 21.5915 30.9291 19.0375 30.9291 15.4706C30.9291 12.1341 29.5671 9.82007 29.5671 9.82007L25.6459 10.8711L23.2644 17.1487L22.6754 18.0144L22.5575 18.1711L22.4009 18.3675L22.1258 18.681L21.7329 19.0743L19.6122 20.8035L14.3106 23.8674L13.4287 29.0006Z" fill="#34A853"/>
<path d="M7.95703 21.1621C9.25094 24.1202 11.7461 26.7206 13.4343 29.0026L22.4011 18.3715C22.4011 18.3715 21.1378 20.0251 18.8463 20.0251C16.2939 20.0251 14.2318 17.9851 14.2318 15.4127C14.2318 13.6487 15.2921 12.4368 15.2921 12.4368L9.20531 14.0692L7.95703 21.1621Z" fill="#FBBC04"/>
<path d="M22.5006 3.86426C25.4786 4.82533 28.0276 6.84289 29.5694 9.81812L22.4032 18.3655C22.4032 18.3655 23.4635 17.1318 23.4635 15.3787C23.4635 12.7463 21.2489 10.7799 18.8566 10.7799C16.5943 10.7799 15.2949 12.4307 15.2949 12.4307V7.04601L22.5006 3.86426Z" fill="#4285F4"/>
<path d="M9.59961 7.64108C11.3784 5.51105 14.5083 3.31763 18.8231 3.31763C20.9165 3.31763 22.4937 3.86769 22.4937 3.86769L15.2887 12.4355H10.1839L9.59961 7.64108Z" fill="#1A73E8"/>
<path d="M7.95699 21.1622C7.95699 21.1622 6.7666 18.8291 6.7666 15.449C6.7666 12.2542 8.00739 9.46169 9.59957 7.64111L15.2927 12.4362L7.95699 21.1622Z" fill="#EA4335"/>
<path d="M130.456 31.4306V13.2132H132.794L139.124 24.3064H139.226L145.556 13.2132H147.895V31.4306H145.556V20.6169L145.658 17.5632H145.556L139.863 27.5625H138.491L132.798 17.5632H132.696L132.798 20.6169V31.4299L130.456 31.4306ZM154.732 31.8123C153.411 31.8123 152.304 31.4306 151.416 30.6672C150.527 29.9038 150.081 28.895 150.081 27.6395C150.081 26.2763 150.605 25.2184 151.657 24.4461C152.708 23.6739 154.003 23.2888 155.538 23.2888C156.911 23.2888 158.038 23.543 158.92 24.0522V23.6957C158.92 22.7796 158.606 22.0462 157.98 21.4955C157.353 20.9447 156.582 20.6687 155.666 20.6687C154.988 20.6687 154.375 20.8295 153.824 21.1458C153.273 21.4621 152.896 21.9092 152.693 22.4681L150.558 21.5527C150.846 20.8063 151.414 20.1213 152.26 19.4793C153.107 18.8372 154.225 18.525 155.615 18.525C157.209 18.525 158.53 18.9919 159.581 19.9243C160.632 20.8568 161.157 22.1723 161.157 23.8688V31.4067H158.92V29.6755H158.818C157.885 31.1068 156.521 31.8123 154.732 31.8123ZM155.113 29.6755C156.079 29.6755 156.956 29.3142 157.744 28.5944C158.533 27.8746 158.926 27.0267 158.926 26.0384C158.266 25.4951 157.274 25.2239 155.952 25.2239C154.817 25.2239 153.961 25.4692 153.385 25.962C152.81 26.4548 152.52 27.0308 152.52 27.692C152.52 28.3027 152.783 28.7859 153.308 29.1424C153.833 29.4989 154.435 29.6768 155.113 29.6768L155.113 29.6755ZM169.92 31.8123C168.971 31.8123 168.119 31.6078 167.366 31.2016C166.613 30.7953 166.048 30.2855 165.677 29.6748H165.575L165.677 31.4047V36.9005H163.339V18.9387H165.576V20.6687H165.679C166.051 20.0579 166.614 19.5495 167.367 19.1419C168.121 18.7343 168.973 18.5311 169.921 18.5311C171.531 18.5311 172.921 19.1671 174.09 20.4396C175.26 21.7122 175.845 23.2888 175.845 25.1721C175.845 27.0553 175.259 28.6326 174.09 29.9045C172.922 31.1764 171.531 31.813 169.921 31.813L169.92 31.8123ZM169.538 29.6755C170.623 29.6755 171.554 29.2638 172.335 28.4486C173.115 27.6334 173.504 26.536 173.504 25.1789C173.504 23.8218 173.114 22.7251 172.335 21.9092C171.555 21.0933 170.623 20.6823 169.538 20.6823C168.437 20.6823 167.5 21.0892 166.729 21.9037C165.958 22.7183 165.574 23.8122 165.574 25.1857C165.574 26.5591 165.959 27.6531 166.729 28.4676C167.5 29.2822 168.437 29.6891 169.538 29.6891V29.6755ZM182.059 31.8123C180.669 31.8123 179.521 31.4729 178.614 30.7947C177.707 30.1165 177.048 29.2678 176.619 28.2502L178.703 27.3846C179.363 28.9523 180.491 29.7245 182.085 29.7245C182.813 29.7245 183.411 29.5637 183.877 29.2474C184.343 28.9311 184.576 28.501 184.576 27.9755C184.576 27.1617 184.008 26.6096 182.872 26.3219L180.356 25.7119C179.559 25.5088 178.806 25.1223 178.094 24.5545C177.382 23.9867 177.026 23.2186 177.026 22.2527C177.026 21.1506 177.513 20.2556 178.488 19.5672C179.462 18.8788 180.619 18.5366 181.957 18.5366C183.058 18.5366 184.041 18.7867 184.906 19.2864C185.753 19.7676 186.409 20.527 186.762 21.4362L184.728 22.2759C184.271 21.1737 183.321 20.6223 181.881 20.6223C181.186 20.6223 180.601 20.7668 180.127 21.0545C179.654 21.3421 179.416 21.7333 179.416 22.2255C179.416 22.9377 179.961 23.421 181.068 23.6759L183.533 24.2607C184.702 24.532 185.567 24.9989 186.126 25.6601C186.685 26.3213 186.965 27.0683 186.965 27.8999C186.965 29.0191 186.507 29.9447 185.592 30.6985C184.676 31.4524 183.499 31.8178 182.05 31.8178L182.059 31.8123ZM61.1543 20.5691H51.5617V23.4183H58.3717C58.0359 27.4125 54.7147 29.1165 51.58 29.1165C50.5868 29.1211 49.6025 28.9275 48.6848 28.547C47.7671 28.1666 46.9343 27.607 46.2351 26.9009C45.5359 26.1947 44.9842 25.3563 44.6124 24.4344C44.2405 23.5125 44.0559 22.5257 44.0693 21.5316C44.0693 17.219 47.4048 13.8976 51.5875 13.8976C54.8155 13.8976 56.7155 15.9574 56.7155 15.9574L58.7088 13.8921C58.7088 13.8921 56.1503 11.043 51.4854 11.043C45.545 11.043 40.9482 16.0617 40.9482 21.4825C40.9482 26.7936 45.2726 31.9745 51.6373 31.9745C57.2351 31.9745 61.3347 28.1357 61.3347 22.4593C61.3347 21.2623 61.1611 20.5698 61.1611 20.5698L61.1543 20.5691Z" fill="#767676"/>
<path d="M69.0294 18.5426C65.0932 18.5426 62.2725 21.6221 62.2725 25.2142C62.2725 28.8595 65.0087 31.9962 69.0825 31.9962C72.7647 31.9962 75.7808 29.1798 75.7808 25.2919C75.7808 20.8362 72.2716 18.5413 69.0362 18.5413L69.0294 18.5426ZM69.0682 21.1852C71.0043 21.1852 72.8382 22.7516 72.8382 25.2749C72.8382 27.745 71.0111 29.3577 69.0587 29.3577C66.9135 29.3577 65.2212 27.638 65.2212 25.2565C65.2212 22.9267 66.8931 21.1859 69.0675 21.1859L69.0682 21.1852Z" fill="#767676"/>
<path d="M83.6544 18.5426C79.7182 18.5426 76.8975 21.6221 76.8975 25.2142C76.8975 28.8595 79.6337 31.9962 83.7075 31.9962C87.3897 31.9962 90.4058 29.1798 90.4058 25.2919C90.4058 20.8362 86.8966 18.5413 83.6612 18.5413L83.6544 18.5426ZM83.6932 21.1852C85.6293 21.1852 87.4632 22.7516 87.4632 25.2749C87.4632 27.745 85.6361 29.3577 83.6837 29.3577C81.5385 29.3577 79.8462 27.638 79.8462 25.2565C79.8462 22.9267 81.5181 21.1859 83.6925 21.1859L83.6932 21.1852Z" fill="#767676"/>
<path d="M98.0547 18.5427C94.442 18.5427 91.6016 21.7101 91.6016 25.2647C91.6016 29.3135 94.8935 31.999 97.9914 31.999C99.9071 31.999 100.925 31.2377 101.678 30.3632V31.6896C101.678 34.0105 100.27 35.401 98.1371 35.401C96.0839 35.401 95.0549 33.8728 94.6967 33.0058L92.1137 34.0868C93.0303 36.026 94.8745 38.049 98.1596 38.049C101.752 38.049 104.49 35.7847 104.49 31.0284V18.9435H101.672V20.0831C100.806 19.1493 99.621 18.5393 98.0493 18.5393L98.0547 18.5427ZM98.3162 21.1805C100.088 21.1805 101.906 22.6937 101.906 25.2791C101.906 27.9073 100.092 29.3551 98.2767 29.3551C96.3509 29.3551 94.5585 27.7901 94.5585 25.3036C94.5585 22.7135 96.419 21.1799 98.3162 21.1799V21.1805ZM117.067 18.5427C113.659 18.5427 110.797 21.2555 110.797 25.2613C110.797 29.4982 113.986 32.012 117.394 32.012C120.238 32.012 121.984 30.4545 123.024 29.0593L120.709 27.512C120.106 28.4485 119.098 29.3646 117.416 29.3646C115.527 29.3646 114.658 28.3286 114.12 27.3252L123.133 23.5764L122.665 22.4858C121.793 20.3374 119.762 18.5434 117.081 18.5434L117.067 18.5427ZM117.184 21.1301C118.413 21.1301 119.295 21.7844 119.672 22.5669L113.653 25.0848C113.394 23.1354 115.238 21.1301 117.184 21.1301ZM106.492 31.6112H109.452V11.7764H106.492V31.6112Z" fill="#767676"/>
</svg>

<svg width="195" height="41" viewBox="0 0 195 41" fill="none" xmlns="http://www.w3.org/2000/svg"><path d="M13.429 29a35.029 35.029 0 012.728 4.029c.697 1.32.987 2.216 1.495 3.808.312.88.594 1.142 1.2 1.142.66 0 .96-.447 1.192-1.137.48-1.503.858-2.65 1.453-3.734 1.168-2.093 2.62-3.952 4.045-5.74.386-.505 2.882-3.452 4.006-5.776 0 0 1.381-2.554 1.381-6.121 0-3.337-1.362-5.65-1.362-5.65l-3.921 1.05-2.382 6.278-.589.865-.117.157-.157.197-.275.313-.393.393-2.12 1.73-5.302 3.063-.882 5.134z" fill="#34A853"/><path d="M7.957 21.162c1.294 2.958 3.79 5.559 5.477 7.84l8.967-10.63s-1.263 1.653-3.555 1.653a4.595 4.595 0 01-4.614-4.612c0-1.764 1.06-2.976 1.06-2.976l-6.087 1.632-1.248 7.093z" fill="#FBBC04"/><path d="M22.5 3.864c2.979.961 5.528 2.979 7.07 5.954l-7.167 8.548s1.06-1.234 1.06-2.987c0-2.633-2.214-4.6-4.606-4.6-2.263 0-3.562 1.652-3.562 1.652V7.046L22.5 3.864z" fill="#4285F4"/><path d="M9.6 7.641c1.778-2.13 4.908-4.323 9.223-4.323 2.093 0 3.67.55 3.67.55l-7.204 8.567h-5.105L9.6 7.641z" fill="#1A73E8"/><path d="M7.957 21.162s-1.19-2.333-1.19-5.713c0-3.195 1.24-5.987 2.833-7.808l5.693 4.795-7.336 8.726z" fill="#EA4335"/><path d="M130.456 31.43V13.214h2.338l6.33 11.093h.102l6.33-11.093h2.339v18.218h-2.339V20.617l.102-3.054h-.102l-5.693 10h-1.372l-5.693-10h-.102l.102 3.054V31.43h-2.342zm24.276.382c-1.321 0-2.428-.381-3.316-1.145-.889-.763-1.335-1.772-1.335-3.027 0-1.364.524-2.422 1.576-3.194 1.051-.772 2.346-1.157 3.881-1.157 1.373 0 2.5.254 3.382.763v-.356c0-.916-.314-1.65-.94-2.2-.627-.551-1.398-.827-2.314-.827-.678 0-1.291.16-1.842.477a2.47 2.47 0 00-1.131 1.322l-2.135-.915c.288-.747.856-1.432 1.702-2.074.847-.642 1.965-.954 3.355-.954 1.594 0 2.915.467 3.966 1.4 1.051.932 1.576 2.247 1.576 3.944v7.538h-2.237v-1.732h-.102c-.933 1.432-2.297 2.137-4.086 2.137zm.381-2.137c.966 0 1.843-.36 2.631-1.08.789-.72 1.182-1.568 1.182-2.557-.66-.543-1.652-.814-2.974-.814-1.135 0-1.991.245-2.567.738-.575.493-.865 1.069-.865 1.73 0 .61.263 1.094.788 1.45.525.357 1.127.535 1.805.535v-.002zm14.807 2.137c-.949 0-1.801-.204-2.554-.61-.753-.407-1.318-.917-1.689-1.527h-.102l.102 1.73V36.9h-2.338V18.94h2.237v1.73h.103c.372-.611.935-1.12 1.688-1.527.754-.408 1.606-.61 2.554-.61 1.61 0 3 .635 4.169 1.908 1.17 1.272 1.755 2.849 1.755 4.732s-.586 3.46-1.755 4.732c-1.168 1.272-2.559 1.909-4.169 1.909h-.001zm-.382-2.137c1.085 0 2.016-.411 2.797-1.226.78-.816 1.169-1.913 1.169-3.27s-.39-2.454-1.169-3.27c-.78-.816-1.712-1.227-2.797-1.227-1.101 0-2.038.407-2.809 1.222-.771.814-1.155 1.908-1.155 3.282 0 1.373.385 2.467 1.155 3.282.771.814 1.708 1.221 2.809 1.221v-.014zm12.521 2.137c-1.39 0-2.538-.34-3.445-1.017a6.06 6.06 0 01-1.995-2.545l2.084-.865c.66 1.567 1.788 2.34 3.382 2.34.728 0 1.326-.161 1.792-.478.466-.316.699-.746.699-1.271 0-.814-.568-1.366-1.704-1.654l-2.516-.61c-.797-.203-1.55-.59-2.262-1.157-.712-.568-1.068-1.336-1.068-2.302 0-1.102.487-1.997 1.462-2.686.974-.688 2.131-1.03 3.469-1.03 1.101 0 2.084.25 2.949.75a4.236 4.236 0 011.856 2.15l-2.034.839c-.457-1.102-1.407-1.654-2.847-1.654-.695 0-1.28.145-1.754.433-.473.287-.711.678-.711 1.17 0 .713.545 1.196 1.652 1.45l2.465.586c1.169.271 2.034.738 2.593 1.4.559.66.839 1.407.839 2.239 0 1.12-.458 2.045-1.373 2.799-.916.753-2.093 1.119-3.542 1.119l.009-.006zM61.154 20.57h-9.592v2.85h6.81c-.336 3.994-3.657 5.697-6.792 5.697a7.469 7.469 0 01-5.345-2.215 7.484 7.484 0 01-2.166-5.37c0-4.312 3.336-7.633 7.518-7.633 3.228 0 5.128 2.06 5.128 2.06l1.994-2.066s-2.559-2.849-7.224-2.849c-5.94 0-10.537 5.019-10.537 10.44 0 5.31 4.325 10.491 10.69 10.491 5.597 0 9.697-3.838 9.697-9.515 0-1.197-.174-1.89-.174-1.89h-.007zm7.876-2.027c-3.937 0-6.758 3.08-6.758 6.671 0 3.646 2.737 6.782 6.81 6.782 3.683 0 6.699-2.816 6.699-6.704 0-4.456-3.51-6.75-6.745-6.75h-.007zm.038 2.642c1.936 0 3.77 1.567 3.77 4.09 0 2.47-1.827 4.083-3.78 4.083-2.145 0-3.837-1.72-3.837-4.102 0-2.33 1.672-4.07 3.846-4.07h.001zm14.586-2.642c-3.936 0-6.757 3.08-6.757 6.671 0 3.646 2.737 6.782 6.81 6.782 3.683 0 6.699-2.816 6.699-6.704 0-4.456-3.51-6.75-6.745-6.75h-.007zm.04 2.642c1.935 0 3.77 1.567 3.77 4.09 0 2.47-1.828 4.083-3.78 4.083-2.145 0-3.838-1.72-3.838-4.102 0-2.33 1.672-4.07 3.846-4.07h.001zm14.361-2.642c-3.613 0-6.453 3.167-6.453 6.722 0 4.049 3.291 6.734 6.39 6.734 1.915 0 2.933-.761 3.686-1.636v1.327c0 2.32-1.408 3.711-3.54 3.711-2.054 0-3.083-1.528-3.441-2.395l-2.583 1.08c.916 1.94 2.76 3.963 6.046 3.963 3.592 0 6.33-2.264 6.33-7.02V18.943h-2.818v1.14c-.866-.935-2.051-1.545-3.623-1.545l.006.004zm.261 2.637c1.772 0 3.59 1.514 3.59 4.1 0 2.627-1.814 4.075-3.63 4.075-1.925 0-3.718-1.565-3.718-4.051 0-2.59 1.861-4.124 3.758-4.124zm18.751-2.637c-3.408 0-6.27 2.713-6.27 6.718 0 4.237 3.189 6.751 6.597 6.751 2.844 0 4.59-1.558 5.63-2.953l-2.315-1.547c-.603.936-1.611 1.853-3.293 1.853-1.889 0-2.758-1.036-3.296-2.04l9.013-3.749-.468-1.09c-.872-2.149-2.903-3.943-5.584-3.943h-.014zm.117 2.587c1.229 0 2.111.654 2.488 1.437l-6.019 2.518c-.259-1.95 1.585-3.955 3.531-3.955zm-10.692 10.481h2.96V11.776h-2.96v19.835z" fill="#767676"/></svg>
